X: 949
T: Tomgraney Castle
R: hornpipe
%S: s:4 b:10(5+5)
B: Francis O'Neill: "The Dance Music of Ireland" (1907) #949
Z: Frank Nordberg - http://www.musicaviva.com
F: http://www.musicaviva.com/abc/tunes/ireland/oneill-1001/0949/oneill-1001-0949-1.abc
N: Compacted via repeats and multiple endings [JC]
N: Compacted by using labels and play order [JC]
P: Play (A1A2)x2 + (BA2)x2
M: C
L: 1/8
K: Ador
"^A"|: cB | A2AB AGEG | AGAB cBcd |[1,3 efga gedc | B2G2 G2 :|[2,4 (3(efg) fa gede |
| c2A2 "^fine"A2 "^B":: eg | a2ab ageg | agab a2ge | dega gedc | B2G2 "^->A2"G2 |]
